vendor/assets/blue/images/blue/subvisual_logo_mono_with_name.svg

<?xml version="1.0" encoding="UTF-8" standalone="no"?>
<svg width="202px" height="40px" viewBox="0 0 202 40" version="1.1" xmlns="http://www.w3.org/2000/svg" xmlns:xlink="http://www.w3.org/1999/xlink">
    <defs></defs>
    <g stroke="none" stroke-width="1" fill="none" fill-rule="evenodd">
        <g fill="#FFFFFF">
            <g>
                <path d="M0.376452889,15.3986087 L0.27982327,15.4553865 L0.27982327,7.56327423 L13.6147108,0.0544119307 L13.6147108,0 L13.6630255,0.0272059652 L13.6630255,0.0272059652 L13.7113402,0 L13.7113402,0.0544119299 L27.0462275,7.56327423 L27.0462275,15.4553865 L13.6630253,7.59166306 L8.90543804,10.3871338 L9.65289624,9.9429653 L0.376453093,7.62465732 L0.376452889,15.3986087 Z M26.9459829,32.2984288 L13.8079698,39.9218629 L13.8079698,40 L13.7396778,39.9614899 L13.7113402,39.977933 L13.7113402,39.9455103 L0.376452888,32.425927 L0.376452888,24.5225465 L13.7113402,32.3690681 L13.7113402,32.3162884 L18.0251282,29.8131795 L26.9459829,32.2984288 L26.9459829,32.2984288 Z M27.142857,28.4048868 L27.1428571,24.5225465 L19.3965346,29.0174103 L27.1428571,24.6255824 L27.142857,28.4048868 L27.142857,28.4048868 Z"></path>
                <path d="M26.8630339,32.1678322 L0,15.4498834 L0,7.55244755 L26.8630339,24.2703963 L26.8630339,32.1678322 L26.8630339,32.1678322 Z"></path>
            </g>
            <path d="M63.9433694,14.3050941 L61.9651623,15.4616298 C61.5953368,14.8282857 61.2429613,14.4152413 60.9080251,14.2224844 C60.5591332,14.0021908 60.1090694,13.8920456 59.5578202,13.8920456 C58.8809699,13.8920456 58.3192624,14.0813576 57.8726807,14.4599873 C57.4260991,14.8317328 57.2028116,15.2998497 57.2028116,15.8643521 C57.2028116,16.642264 57.7889412,17.2687146 58.961218,17.7437227 L60.5730905,18.394274 C61.8849241,18.9174714 62.8443624,19.5559691 63.4514343,20.3097864 C64.0585062,21.0636036 64.3620376,21.9877903 64.3620376,23.0823743 C64.3620376,24.5487037 63.8666186,25.7603005 62.8757656,26.7172009 C61.8779347,27.6809855 60.6393871,28.1628706 59.1600854,28.1628706 C57.75754,28.1628706 56.5992362,27.7532683 55.6851395,26.9340514 C54.7849984,26.1148344 54.2232908,24.9617523 54,23.4747703 L56.4701423,22.9378073 C56.5817877,23.8740552 56.7771642,24.521158 57.0562778,24.8791352 C57.5586821,25.5675527 58.2913441,25.9117564 59.2542857,25.9117564 C60.0148701,25.9117564 60.646355,25.6604877 61.1487593,25.1579429 C61.6511636,24.6553981 61.902362,24.0186214 61.902362,23.2475937 C61.902362,22.9378058 61.8587512,22.6538378 61.7715282,22.3956812 C61.6843052,22.1375246 61.5482394,21.9000241 61.3633267,21.6831726 C61.178414,21.466321 60.9394267,21.2632409 60.6463575,21.073926 C60.3532883,20.8846112 60.0044016,20.7039043 59.599687,20.5317999 L58.040148,19.8915748 C55.8281734,18.9690952 54.7222026,17.619817 54.7222026,15.8436997 C54.7222026,14.6458531 55.1862219,13.6442205 56.1142743,12.838772 C57.0423268,12.0264392 58.1971417,11.620279 59.5787536,11.620279 C61.4418363,11.620279 62.8966937,12.5152084 63.9433694,14.3050941 L63.9433694,14.3050941 Z M74.1265216,11.9300653 L74.1265216,21.5334425 C74.1265216,22.9033935 74.3532979,23.905026 74.8068574,24.5383702 C75.4837077,25.4539655 76.4361683,25.9117564 77.6642678,25.9117564 C78.8993451,25.9117564 79.8552946,25.4539655 80.5321448,24.5383702 C80.9857043,23.9256785 81.2124806,22.924046 81.2124806,21.5334425 L81.2124806,11.9300653 L83.6512228,11.9300653 L83.6512228,22.19432 C83.6512228,23.8740589 83.1209151,25.2577575 82.0602837,26.3454573 C80.8670734,27.5570722 79.4017494,28.1628706 77.6642678,28.1628706 C75.9267861,28.1628706 74.464951,27.5570722 73.2787185,26.3454573 C72.2180871,25.2577575 71.6877794,23.8740589 71.6877794,22.19432 L71.6877794,11.9300653 L74.1265216,11.9300653 Z M91.9085013,27.8737366 L91.9085013,11.9300653 L94.3367768,11.9300653 C95.4183417,11.9300653 96.2800917,12.0126742 96.9220528,12.1778944 C97.5709918,12.3431146 98.1187438,12.6219196 98.5653255,13.0143176 C99.018885,13.420484 99.3782382,13.9264633 99.6433961,14.5322707 C99.9155317,15.1449624 100.051598,15.7645289 100.051598,16.3909889 C100.051598,17.5337621 99.6085115,18.5009743 98.722326,19.2926545 C99.5806001,19.5817899 100.25744,20.0877692 100.752867,20.8106076 C101.255271,21.5265619 101.506469,22.3595347 101.506469,23.3095509 C101.506469,24.5555868 101.059895,25.6088498 100.166731,26.4693718 C99.6294378,26.9994533 99.0258638,27.3677512 98.3559914,27.5742765 C97.6233184,27.7739176 96.7057465,27.8737366 95.6032481,27.8737366 L91.9085013,27.8737366 Z M94.3472435,18.7763439 L95.1113129,18.7763439 C96.0184319,18.7763439 96.683061,18.5784268 97.1052202,18.1825867 C97.5273794,17.7867466 97.7384558,17.2033214 97.7384558,16.4322938 C97.7384558,15.6819186 97.5221461,15.1122616 97.0895201,14.7233057 C96.6568942,14.3343497 96.0288982,14.1398747 95.2055133,14.1398747 L94.3472435,14.1398747 L94.3472435,18.7763439 Z M94.3472435,25.6122962 L95.854449,25.6122962 C96.9569474,25.6122962 97.7663644,25.39889 98.2827245,24.9720711 C98.8269958,24.5108313 99.0991274,23.9256851 99.0991274,23.216615 C99.0991274,22.5281975 98.8374624,21.9499354 98.3141246,21.4818114 C97.8047424,21.0205716 96.8941482,20.7899552 95.5823146,20.7899552 L94.3472435,20.7899552 L94.3472435,25.6122962 Z M109.167146,11.9300653 L113.636429,22.9791122 L118.168512,11.9300653 L120.837522,11.9300653 L113.584095,29.0715772 L106.498136,11.9300653 L109.167146,11.9300653 Z M129.670469,11.9300653 L129.670469,27.8737366 L127.231727,27.8737366 L127.231727,11.9300653 L129.670469,11.9300653 Z M147.075647,14.3050941 L145.09744,15.4616298 C144.727615,14.8282857 144.375239,14.4152413 144.040303,14.2224844 C143.691411,14.0021908 143.241347,13.8920456 142.690098,13.8920456 C142.013248,13.8920456 141.45154,14.0813576 141.004958,14.4599873 C140.558377,14.8317328 140.335089,15.2998497 140.335089,15.8643521 C140.335089,16.642264 140.921219,17.2687146 142.093496,17.7437227 L143.705368,18.394274 C145.017202,18.9174714 145.97664,19.5559691 146.583712,20.3097864 C147.190784,21.0636036 147.494315,21.9877903 147.494315,23.0823743 C147.494315,24.5487037 146.998896,25.7603005 146.008043,26.7172009 C145.010212,27.6809855 143.771665,28.1628706 142.292363,28.1628706 C140.889818,28.1628706 139.731514,27.7532683 138.817417,26.9340514 C137.917276,26.1148344 137.355568,24.9617523 137.132278,23.4747703 L139.60242,22.9378073 C139.714065,23.8740552 139.909442,24.521158 140.188555,24.8791352 C140.69096,25.5675527 141.423622,25.9117564 142.386563,25.9117564 C143.147148,25.9117564 143.778633,25.6604877 144.281037,25.1579429 C144.783441,24.6553981 145.03464,24.0186214 145.03464,23.2475937 C145.03464,22.9378058 144.991029,22.6538378 144.903806,22.3956812 C144.816583,22.1375246 144.680517,21.9000241 144.495604,21.6831726 C144.310692,21.466321 144.071704,21.2632409 143.778635,21.073926 C143.485566,20.8846112 143.136679,20.7039043 142.731965,20.5317999 L141.172426,19.8915748 C138.960451,18.9690952 137.85448,17.619817 137.85448,15.8436997 C137.85448,14.6458531 138.3185,13.6442205 139.246552,12.838772 C140.174604,12.0264392 141.329419,11.620279 142.711031,11.620279 C144.574114,11.620279 146.028971,12.5152084 147.075647,14.3050941 L147.075647,14.3050941 Z M157.258799,11.9300653 L157.258799,21.5334425 C157.258799,22.9033935 157.485576,23.905026 157.939135,24.5383702 C158.615985,25.4539655 159.568446,25.9117564 160.796545,25.9117564 C162.031623,25.9117564 162.987572,25.4539655 163.664422,24.5383702 C164.117982,23.9256785 164.344758,22.924046 164.344758,21.5334425 L164.344758,11.9300653 L166.7835,11.9300653 L166.7835,22.19432 C166.7835,23.8740589 166.253193,25.2577575 165.192561,26.3454573 C163.999351,27.5570722 162.534027,28.1628706 160.796545,28.1628706 C159.059064,28.1628706 157.597229,27.5570722 156.410996,26.3454573 C155.350365,25.2577575 154.820057,23.8740589 154.820057,22.19432 L154.820057,11.9300653 L157.258799,11.9300653 Z M183.843278,24.0014071 L176.924786,24.0014071 L175.124513,27.8737366 L172.49737,27.8737366 L180.493932,10.9284228 L188.207893,27.8737366 L185.538884,27.8737366 L183.843278,24.0014071 Z M182.848941,21.7399667 L180.452065,16.3187054 L177.940056,21.7399667 L182.848941,21.7399667 Z M197.051307,11.9300653 L197.051307,25.6122962 L201.803191,25.6122962 L201.803191,27.8737366 L194.612565,27.8737366 L194.612565,11.9300653 L197.051307,11.9300653 Z"></path>
        </g>
    </g>
</svg>

<svg width="202" height="40" viewBox="0 0 202 40" xmlns="http://www.w3.org/2000/svg"><g fill="#FFF" fill-rule="evenodd"><path d="M.376 15.4l-.096.055V7.563L13.615.053V0l.048.027L13.71 0v.054l13.336 7.51v7.89L13.663 7.593l-4.758 2.795.748-.444L.376 7.625V15.4zm26.57 16.898l-13.138 7.624V40l-.068-.04-.03.018v-.032L.377 32.426v-7.903L13.71 32.37v-.054l4.315-2.503 8.92 2.485zm.197-3.893v-3.882l-7.746 4.494 7.746-4.39v3.778z"/><path d="M26.863 32.168L0 15.45V7.552L26.863 24.27v7.898zM63.943 14.305l-1.978 1.157c-.37-.634-.722-1.047-1.057-1.24-.35-.22-.8-.33-1.35-.33-.677 0-1.24.19-1.685.568-.447.372-.67.84-.67 1.404 0 .778.586 1.405 1.758 1.88l1.613.65c1.312.523 2.27 1.162 2.878 1.916.61.754.912 1.678.912 2.772 0 1.467-.495 2.678-1.486 3.635-.998.964-2.237 1.446-3.716 1.446-1.402 0-2.56-.41-3.475-1.23-.9-.818-1.462-1.97-1.685-3.458l2.47-.537c.112.936.307 1.583.586 1.94.503.69 1.235 1.034 2.198 1.034.76 0 1.392-.252 1.895-.754.5-.503.752-1.14.752-1.91 0-.31-.043-.594-.13-.852-.088-.258-.224-.496-.41-.713-.184-.217-.423-.42-.716-.61-.293-.188-.642-.37-1.046-.54l-1.56-.64c-2.212-.924-3.318-2.273-3.318-4.05 0-1.197.464-2.2 1.392-3.004.928-.814 2.083-1.22 3.465-1.22 1.862 0 3.317.895 4.363 2.685zm10.184-2.375v9.603c0 1.37.226 2.372.68 3.005.677.916 1.63 1.374 2.857 1.374 1.235 0 2.19-.458 2.868-1.374.454-.612.68-1.614.68-3.005V11.93h2.44v10.264c0 1.68-.53 3.064-1.592 4.15-1.193 1.213-2.658 1.82-4.396 1.82-1.737 0-3.2-.607-4.385-1.82-1.062-1.086-1.592-2.47-1.592-4.15V11.93h2.44zM91.91 27.874V11.93h2.427c1.08 0 1.943.083 2.585.248.65.165 1.197.444 1.643.836.454.406.813.912 1.078 1.518.273.613.41 1.233.41 1.86 0 1.142-.444 2.11-1.33 2.9.858.29 1.534.796 2.03 1.52.502.715.753 1.548.753 2.498 0 1.246-.446 2.3-1.34 3.16-.537.53-1.14.898-1.81 1.104-.733.2-1.65.3-2.753.3H91.91zm2.437-9.098h.764c.908 0 1.573-.198 1.995-.593.422-.396.633-.98.633-1.75 0-.75-.216-1.32-.648-1.71-.433-.39-1.06-.583-1.884-.583h-.86v4.636zm0 6.836h1.507c1.103 0 1.912-.213 2.43-.64.543-.46.815-1.046.815-1.755 0-.69-.263-1.267-.786-1.735-.51-.46-1.42-.692-2.732-.692h-1.235v4.822zm14.82-13.682l4.47 11.05 4.532-11.05h2.668l-7.254 17.142-7.086-17.142h2.67zm20.503 0v15.944h-2.438V11.93h2.438zm17.406 2.375l-1.98 1.157c-.368-.634-.72-1.047-1.056-1.24-.35-.22-.8-.33-1.35-.33-.677 0-1.238.19-1.685.568-.447.372-.67.84-.67 1.404 0 .778.586 1.405 1.758 1.88l1.612.65c1.312.523 2.272 1.162 2.88 1.916.606.754.91 1.678.91 2.772 0 1.467-.496 2.678-1.487 3.635-.998.964-2.236 1.446-3.716 1.446-1.402 0-2.56-.41-3.475-1.23-.9-.818-1.46-1.97-1.685-3.458l2.47-.537c.112.936.307 1.583.587 1.94.5.69 1.234 1.034 2.197 1.034.76 0 1.392-.252 1.894-.754.503-.503.755-1.14.755-1.91 0-.31-.044-.594-.13-.852-.088-.258-.224-.496-.41-.713-.184-.217-.423-.42-.716-.61-.294-.188-.643-.37-1.048-.54l-1.56-.64c-2.212-.924-3.318-2.273-3.318-4.05 0-1.197.464-2.2 1.393-3.004.928-.814 2.082-1.22 3.464-1.22 1.864 0 3.32.895 4.366 2.685zm10.183-2.375v9.603c0 1.37.226 2.372.68 3.005.676.916 1.628 1.374 2.857 1.374 1.235 0 2.19-.458 2.867-1.374.454-.612.68-1.614.68-3.005V11.93h2.44v10.264c0 1.68-.53 3.064-1.59 4.15-1.195 1.213-2.66 1.82-4.397 1.82-1.738 0-3.2-.607-4.386-1.82-1.06-1.086-1.59-2.47-1.59-4.15V11.93h2.44zM183.842 24h-6.918l-1.8 3.874h-2.628l7.997-16.946 7.714 16.946h-2.67L183.844 24zm-.994-2.26l-2.398-5.42-2.512 5.42h4.91zm14.2-9.81v13.682h4.753v2.262h-7.19V11.93h2.438z"/></g></svg>
